X:3565
T:Laterna magica
O:england
C:R. Tesi: Il ballo della lepre 8b
M:6/8
L:1/8
K:G
dc|BBB BcA|GGG GBd|cAc BGB|AAA ABc|\
ddd dec|BBB BcA|GFE DEF|GGG G:|
|:zB|~d2B ~d2B|eee e3|~c2A ~c2A|ddd d3|\
BBB BAG|EFG ABc|BAG DEF|GGG G:|


